X:423
T:Quickstep - New Tatter Jack
S:Bruce & Emmett's Drummers and Fifers Guide (1862), p. 42
M:6/8
L:1/8
K:Bm
%%MIDI program 72
%%MIDI transpose 8
%%MIDI ratio 3 1
F|F>BB B2c|dcd fed|aA~A eA~A|ced cBA|F>BB B2c|
def b2a|fed cde|f^ef B2::f/g/|afg a2b|afg a2A|
ABA cBA|ced cBA|F>BB B2c|def b2a|fed cde|f^ef B2:|
